X:304
T:Reel 304
M:4/4
K:Dmix
L:1/8
G| (3FED FG A2AB|cAdB cAGB|Addc d2de|fdec dcAG|FEFG A2AB|cAdB cAGB|Addc A2AG|EFGE FDD|g|fdeg fdec|Addc Addg|fdeg fdec|ABcd e2fg|agfa g2eg|fded cAGc|Addc A2AG|EFGE FDD|
